X:131
T:The Piper in the Meadows Straying
B:Joyce, P. W.; "Old Irish Folk Music and Songs"
R:hornpipe
L:1/8
M:6/8
Z:Allan Garvin
K:G
d2 dc B2 BA|GFGA B2 G2|ABcA G2 F2|G2 B2 B2 A2|
d2 dc B2 BA|GFGA B2 G2|ABcA G2 F2|G2 B2 G4:|
A2 AB c2 A2|BABc d2 A2|d2 dd e2 g2|fedc d2 ((3ABc)|
dedc BcBA|GFGA B2 G2|ABcA G2 F2|G2 B2 B2 A2|
dedc BcBA|GFGA B2 G2|ABcA G2 F2|G2 B2 G4||
